Origami/24x24/apps/preferences-system-privacy.svg

<svg width="24" height="24" version="1" xmlns="http://www.w3.org/2000/svg">
 <rect transform="matrix(0,-1,-1,0,0,0)" x="-22" y="-22" width="20" height="20" rx="10" ry="10" style="fill:#325f78"/>
 <rect transform="matrix(0,-1,-1,0,0,0)" x="-20.5" y="-20" width="16" height="16" rx="8" ry="8" style="opacity:.2"/>
 <rect transform="matrix(0,-1,-1,0,0,0)" x="-20" y="-20" width="16" height="16" rx="8" ry="8" style="fill:#5c8ba2"/>
 <path d="m8.0215 12.213c-0.0069 0.096-0.0215 0.189-0.0215 0.287 0 2.2091 1.7909 4 4 4s4-1.7909 4-4c0-0.09774-0.01462-0.19112-0.02148-0.28711-0.112 2.108-1.842 3.787-3.978 3.787-2.1363 0-3.8657-1.679-3.9785-3.787z" style="opacity:.2"/>
 <path d="m12 6.5-1.4844 1.7812c-1.4763 0.5885-2.5156 2.0326-2.5156 3.7188 0 2.2091 1.7909 4 4 4s4-1.7909 4-4c0-1.6862-1.0393-3.1303-2.5156-3.7188l-1.484-1.7812z" style="fill:#ffffff"/>
 <path d="m12 2c-5.54 0-10 4.46-10 10 0 0.083 0.0065 0.164 0.0117 0.246 0.1351-5.4205 4.534-9.746 9.9883-9.746s9.8532 4.3255 9.9883 9.7461c5e-3 -0.082 0.012-0.163 0.012-0.246 0-5.54-4.46-10-10-10z" style="fill:#ffffff;opacity:.1"/>
 <path d="m12 6.5-1.4844 1.7812c-1.4763 0.5885-2.5156 2.0326-2.5156 3.7188 0 0.146 0.0276 0.285 0.043 0.428 0.2053-1.4349 1.1669-2.6263 2.4726-3.1468l1.4844-1.7812 1.484 1.7812c1.3058 0.52047 2.2674 1.7118 2.4727 3.1465 0.015-0.143 0.043-0.282 0.043-0.428 0-1.6862-1.039-3.1303-2.516-3.7188l-1.484-1.7812z" style="fill:#ffffff;opacity:.1"/>
 <path d="m2.0117 12.25c-2e-3 0.084-0.0117 0.166-0.0117 0.25 0 5.54 4.46 10 10 10s10-4.46 10-10c0-0.08441-0.0097-0.1661-0.01172-0.25-0.133 5.422-4.532 9.75-9.988 9.75-5.4556 0-9.8552-4.328-9.9883-9.75z" style="opacity:.2"/>
 <path d="m12 4c-4.432 0-8 3.568-8 8 0 0.084406 0.0091492 0.16624 0.0117188 0.25 0.1323523-4.3143496 3.6406871-7.75 7.9882812-7.75 4.347594 0 7.855929 3.4356504 7.988281 7.75 0.00257-0.08376 0.011719-0.165594 0.011719-0.25 0-4.432-3.568-8-8-8z" style="fill:#ffffff;opacity:.1"/>
</svg>

<svg xmlns="http://www.w3.org/2000/svg" width="24" height="24" version="1">
 <rect style="fill:#325f78" width="20" height="20" x="-22" y="-22" rx="10" ry="10" transform="matrix(0,-1,-1,0,0,0)"/>
 <rect style="opacity:0.2" width="16" height="16" x="-20.5" y="-20" rx="8" ry="8" transform="matrix(0,-1,-1,0,0,0)"/>
 <rect style="fill:#5c8ba2" width="16" height="16" x="-20" y="-20" rx="8" ry="8" transform="matrix(0,-1,-1,0,0,0)"/>
 <path style="opacity:0.2" d="M 8.0215,12.213 C 8.0146,12.309 8,12.402 8,12.5 c 0,2.2091 1.7909,4 4,4 2.2091,0 4,-1.7909 4,-4 0,-0.09774 -0.01462,-0.19112 -0.02148,-0.28711 -0.112,2.108 -1.842,3.787 -3.978,3.787 -2.1363,0 -3.8657,-1.679 -3.9785,-3.787 z"/>
 <path style="fill:#ffffff" d="M 12,6.5 10.5156,8.2812 C 9.0393,8.8697 8,10.3138 8,12 c 0,2.2091 1.7909,4 4,4 2.2091,0 4,-1.7909 4,-4 0,-1.6862 -1.0393,-3.1303 -2.5156,-3.7188 L 12.0004,6.5 Z"/>
 <path style="opacity:0.1;fill:#ffffff" d="M 12,2 C 6.46,2 2,6.46 2,12 2,12.083 2.0065,12.164 2.0117,12.246 2.1468,6.8255 6.5457,2.5 12,2.5 c 5.4543,0 9.8532,4.3255 9.9883,9.7461 0.005,-0.082 0.012,-0.163 0.012,-0.246 0,-5.54 -4.46,-10 -10,-10 z"/>
 <path style="opacity:0.1;fill:#ffffff" d="M 12,6.5 10.5156,8.2812 C 9.0393,8.8697 8,10.3138 8,12 8,12.146 8.0276,12.285 8.043,12.428 8.2483,10.9931 9.2099,9.8017 10.5156,9.2812 L 12,7.5 13.484,9.2812 c 1.3058,0.52047 2.2674,1.7118 2.4727,3.1465 0.015,-0.143 0.043,-0.282 0.043,-0.428 0,-1.6862 -1.039,-3.1303 -2.516,-3.7188 l -1.484,-1.7812 z"/>
 <path style="opacity:0.2" d="M 2.0117,12.25 C 2.0097,12.334 2,12.416 2,12.5 c 0,5.54 4.46,10 10,10 5.54,0 10,-4.46 10,-10 0,-0.08441 -0.0097,-0.1661 -0.01172,-0.25 -0.133,5.422 -4.532,9.75 -9.988,9.75 -5.4556,0 -9.8552,-4.328 -9.9883,-9.75 z"/>
 <path style="fill:#ffffff;opacity:0.1" d="M 12 4 C 7.568 4 4 7.568 4 12 C 4 12.084406 4.0091492 12.16624 4.0117188 12.25 C 4.1440711 7.9356504 7.6524059 4.5 12 4.5 C 16.347594 4.5 19.855929 7.9356504 19.988281 12.25 C 19.990851 12.16624 20 12.084406 20 12 C 20 7.568 16.432 4 12 4 z"/>
</svg>
